X:249
T:Pinch of Snuff (reel), The 
B:CRE2.182 (PinsÃÂÃÂÃÂÃÂ­n SnaoisÃÂÃÂÃÂÃÂ­n)
F:file ID: cre.2/249pinch
N:1:This is one of the more complicated pieces in CRE.  As marked 
in the book, order of the parts would be as follows:
(1)play through A-B-C-D-E
(2)repeat part C, play "coda" instead of C24
(3)at end of coda, repeat A1 to B15
(4)Breathnach doesn't indicate a final measure, so try
|GBAc d4-|d4z4| in place of B16. 
N:2:ABC playback doesn't deal well with things like codas and
alternate endings. Best bet might be to look for somebody's 
recording of this on somplace ike YouTube and play it like they do. 
Good luck!
R:reel
M:C
Q:180
K:D
P:part A
A>BAG||"1"D2FD E2DE|F2DF EFGE|F2DF E2DF|(3GFG BG EFGE|
"5"D2FD E2DE|F2DF EFGE|F2DF E2DF|GABG EFGE||
P:part B
"9"DFAd BGAF|DFAF EA,CE|DFAd BGAF|GABG EA,CE|
"13"DFAd BGAF|DFAF EA,CE|DFAd BGAF|"16"GABG EFG||\
"final" |GBAc d4-|d4z4|]
P:part C
g|"17"fgfe dcdB|AFDF AFDc|BGBd =cBcG|ED=CD EFGg|
"21"fgfe dcdB|AFDF AFDc|BGBd =cBAG|"24"ED=CD EFG||\
"coda" E=CEF GBAG||
P:part D
g|"25"f2df e2dg|f2df efge|f2df efdf|g2bg efge|
"29"f2df efdf|efdf efge|f2df (3efe df|(3gfg bg efge||
P:part E
"33"dfag bgaf|dfaf eAce|dfag bgaf|(3gfg bg eAce|
"37"dfag bgaf|dfaf eAce|dfag bgaf|g2bg efge||

%%%

